X: 30
T: NEW ROAD TO ALSTON
B: "Old English Country Dances", Frank Kidson ed., William Reeves pub., London 1890
Z: 2010-9-26 John Chambers <jc:trillian.mit.edu>
M: C
L: 1/8
K: Am
|: A2B2 c2c2 | A2B2 c2c2 | edcB A2A2 | edcB A2A2 |\
   A2B2 c2c2 | A2B2 c2c2 | e2f2 edcB | A2A2 A4  :|
|: e2e2 c2c2 | a2a2 e4   | edcB A2A2 | edcB A2A2 |\
   e2e2 c2c2 | a2a2 e4   | e2f2 edcB | A2A2 A4  :|


%%sep 1 1 500

%%sep 1 1 500

